X:1
T:Confitemini Domino
T:Palestrina transposed for satb
T:Confitemini Domino
C:Palestrina
C:transposed for satb
%%score [ 1 2 3 4 ]
L:1/8
Q:1/2=92
M:4/2
K:F
V:1 treble nm="Soprano" snm="S."
V:2 treble nm="Alto" snm="A."
V:3 treble-8 transpose=-12 nm="Tenor" snm="T."
V:4 bass nm="Bass" snm="B."
V:1
"^Psalm 118: Give thanks to the Lord, for he is good; his mercy endures forever." G8 G8 | %1
w: Con- fi-|
 A6 A2 A4 c4- | c4 =B2 A2 B4 A4 | G8 z8 | z8 z4 F4- | F4 E2 D2 E2 F2 G4- | G2 F2 F8 E4 | D12 D4 | %8
w: te- mi- ni Do-|* * * * mi-|no,|Do-|||* mi-|
 C8 z8 | z8 z4 c4- | c2 c2 _B4 A8 | G12 z4 | c6 c2 B4 A4- | A4 G2 F2 E4 F4- | F4 E2 D2 E2 F2 G4- | %15
w: no,|quo-|* ni- am bo-|nus,|quo- ni- am bo-|||
 G4 F4 G8- | G8 A6 A2 | A4 A4 F8 | E6 DC D4 D4 | (E8 F8) | z4 c4 B4 A4 | G4 F4 E4 A4 | G4 F8 E4 | %23
w: * * nus:|_ quo- ni-|am in sae-|* * * * cu-|lum _|mi- se- ri-|cor- di- a e-||
 F8 z8 | z16 | z16 | G6 G2 G4 G4 | E4 E4 C2 D2 E2 F2 | G4 G4 A8- | A4 A4 (G8 | F8) z8 | %31
w: jus,|||quo- ni- am in|sae- cu- lum, _ _ _|_ in sae-|* cu- lum,|_|
 A6 A2 A4 G4 | G4 G4 (G2 F2 E2 D2 | C8) z4 c4 | B4 A4 G4 F4 | E4 A6 G2 F4 | E4 F4 G8 | %37
w: quo- ni- am in|sae- cu- lum _ _ _|_ mi-|se- ri- cor- di-|a e- * *|* * jus,|
 z4 c4 B4 A4 | G4 F4 E4 A4- | A2 G2 F2 E2 F6 E2 | D8 C4 c4- | c2 B2 A2 G2 A8 | G16 | G16 |] %44
w: mi- se- ri-|cor- di- a e-||* jus, e-|||jus.|
V:2
 E8 E8 | F6 F2 E8 | G12 C4 | C8 G8 | G8 A6 A2 | A4 c8 =B2 A2 | =B4 A4 G8- | G8 z4 G4 | E4 A8 G4 | %9
w: Con- fi-|te- mi- ni|Do- mi-|no, con-|fi- te- mi-|ni Do- * *|* mi- no,|_ con-|fi- te- mi-|
 G8 G4 F4 | G8 z4 c4- | c2 c2 _B4 A8 | G8 z4 F4- | F2 F2 E4 (G4 A4) | G8 G6 G2 | A4 (c8 =B4) | %16
w: ni Do- mi-|no, quo-|* ni- am bo-|nus, quo-|* ni- am bo- *|nus, quo- ni-|am bo- *|
 c16 | z8 A6 A2 | A4 G4 G6 G2 | G8 z4 c4 | B4 A4 G4 F4 | E4 A6 G2 F4 | E4 F4 G8 | z4 c4 B4 A4 | %24
w: nus:|quo- ni-|am in sae- cu-|lum mi-|se- ri- cor- di-|a e- * *|* * ius,|mi- se- ri-|
 G4 F4 E4 A4- | A2 G2 F2 E2 F2 E2 E2 DC | D8 E8 | G6 G2 G4 G4 | E4 E4 C2 D2 E2 C2 | F8 E8 | %30
w: cor- di- a e-||* ius,|quo- ni- am in|sae- cu- lum, _ _ _|_ _|
 A6 A2 A4 A4 | F8 E6 DC | D4 D4 E4 G4 | F4 E4 D4 C4 | G4 c4 B4 A4 | G4 F4 E4 A4 | G4 F8 E4 | %37
w: quo- ni- am in|sae- * * *|* cu- lum mi-|se- ri- cor- di-|a, mi- se- ri-|cor- di- a e-||
 F8 z8 | z16 | z4 c4 B4 A4 | G6 F2 E4 A4- | A2 G2 F2 E2 F8- | F4 E4 D8 | E16 |] %44
w: jus,||mi- se- ri-|cor- di- a e-|||jus.|
V:3
 z16 | c8 c8 | d6 d2 d4 f4- | f4 e2 d2 e4 d2 c2 | d4 e4 f4 F4- | F2 G2 A2 B2 c4 G4 | %6
w: |Con- fi-|te- mi- ni Do-||* mi- no, Do-|* * * * * mi-|
 d6 c2 =B4 c4- | c4 =B2 A2 B8 | c4 f8 e2 d2 | e4 d2 c2 d4 c4 | d6 e2 f6 e2 | d8 z4 f4- | %12
w: no, _ _ _|_ _ _ _|* Do- * *|* * * * mi-|no, _ _ _|_ quo-|
 f2 f2 e4 d8 | c16- | c8 z4 d4 | e4 c4 d8 | e8 f6 f2 | c4 c4 d4 d4 | (c6 BA G8) | z4 c4 _B4 A4 | %20
w: * ni- am bo-|nus,|_ quo-|ni- am bo-|nus: quo- ni-|am in sae- cu-|lum _ _ _|mi- se- ri-|
 G4 F4 G4 A4 | c4 F4 A6 B2 | c4 d4 c8 | d4 c4 z4 f4 | e4 d4 c6 B2 | A4 d6 c2 c4- | c4 =B4 c8 | %27
w: cor- di- a e-|jus, mi- se- ri-|cor- di- a|e- jus, mi-|se- ri- cor- di-|a e- * *|* * jus,|
 z8 c6 c2 | c4 c4 A4 A4 | (F2 G2 A2 B2 c8) | c6 c2 c4 c4 | d4 d4 (c6 BA | G8) z8 | z4 c4 B4 A4 | %34
w: quo- ni-|am in sae- cu-|lum, _ _ _ _|quo- ni- am in|sae- cu- lum _ _|_|mi- se- ri-|
 G4 F4 G4 A4 | c4 F4 A6 B2 | c4 d4 c8 | d4 c4 z4 f4 | e4 d4 c6 B2 | A8 d4 c4- | c4 =B4 c8 | %41
w: cor- di- a e-|jus, mi- se- ri-|cor- di- a|e- jus, mi-|se- ri- cor- di-|a e- *|* * jus,|
 A6 _B2 c4 d4- | d4 c8 =B4 | c16 |] %44
w: e- * * *||jus.|
V:4
 C8 C8 | F,6 F,2 A,8 | G,12 F,4 | C,4 C8 =B,2 A,2 | =B,4 C4 F,8 | z16 | z16 | G,8 G,8 | %8
w: Con- fi-|te- mi- ni|Do- mi-|no, Do- * *|* mi- no,|||con- fi-|
 A,6 A,2 A,4 C4- | C4 =B,2 A,2 B,4 A,4 | G,8 F,8 | G,4 G,4 A,4 F,G,A,B, | C8 z8 | z16 | %14
w: te- mi- ni Do-|* * * * mi-|no, quo-|ni- am bo- nus, _ _ _|_||
 z4 C6 C2 _B,4 | A,8 (G,8 | C,8) F,6 F,2 | F,4 F,4 D,2 E,2 F,2 G,2 | A,2 B,2 C8 =B,4 | C8 z8 | %20
w: quo- ni- am|bo- nus:|_ quo- ni-|am in sae- * * *|* * * cu-|lum|
 z16 | z16 | z8 z4 C4 | B,4 A,4 G,4 F,4 | C,4 D,4 A,6 G,2 | F,2 E,2 D,4 A,8 | G,8 C,8- | C,16 | %28
w: ||mi-|se- ri- cor- di-|a e- * *||* ius,|_|
 z16 | z16 | F,6 F,2 F,4 F,4 | D,2 E,2 F,2 G,2 A,2 B,2 C4- | C4 =B,4 (C6 _B,2 | A,8) z8 | z16 | %35
w: ||quo- ni am in|sae- * * * * * *|* cu- lum _|_||
 z16 | z8 z4 C4 | B,4 A,4 G,4 F,4 | C,4 D,4 A,8 | F,8 D,4 F,4 | G,4 G,4 A,8 | F,16 | G,16 | C,16 |] %44
w: |mi-|se- ri- cor- di-|a e- jus,|mi- se- ri-|cor- di- a|e-||jus.|

